icons/fill-new-food-sugar.svg

<svg xmlns="http://www.w3.org/2000/svg" width="32px" height="32px" viewBox="0 0 32 32" version="1.1">
    <title>fill-new-food-sugar</title>
    <g id="fill-new-food-sugar" stroke-width="1" fill-rule="evenodd">
        <path d="M24.4852814,17.4142136 L16.7071068,25.1923882 C15.1450096,26.7544853 12.6123497,26.7544853 11.0502525,25.1923882 L10.8487271,24.9908627 L9.95549733,30.3467058 C9.92808571,30.5111756 9.86011038,30.6655052 9.75855954,30.7961155 L9.67621018,30.8894136 C9.28568589,31.2799379 8.65252091,31.2799379 8.26199662,30.8894136 L1.11058638,23.7380034 C0.963209081,23.5906261 0.865563764,23.4008827 0.831299238,23.1952956 C0.740504185,22.6505253 1.10852385,22.1352977 1.65329417,22.0445027 L7.00843017,21.1505658 L6.80761184,20.9497475 C5.84613212,19.9882677 5.47644866,18.659093 5.69856145,17.41486 L24.4852814,17.4142136 Z M30.8894136,8.26199662 C31.2799379,8.65252091 31.2799379,9.28568589 30.8894136,9.67621018 C30.7420363,9.82358748 30.552293,9.9212328 30.3467058,9.95549733 L24.9901556,10.84802 L25.1923882,11.0502525 C26.1541753,12.0120396 26.5237877,13.3417569 26.3012253,14.5863333 L7.51471863,14.5857864 L15.2928932,6.80761184 C16.8549904,5.24551468 19.3876503,5.24551468 20.9497475,6.80761184 L21.1512729,7.00913728 L22.0445027,1.65329417 C22.1352977,1.10852385 22.6505253,0.740504185 23.1952956,0.831299238 C23.4008827,0.865563764 23.5906261,0.963209081 23.7380034,1.11058638 L30.8894136,8.26199662 Z" id="&#24418;&#29366;" />
    </g>
</svg>

<svg xmlns="http://www.w3.org/2000/svg" viewBox="0 0 32 32"><path fill="currentColor" d="m24.485 17.414-7.778 7.778a4 4 0 0 1-5.657 0l-.201-.201-.894 5.356a1 1 0 0 1-.196.45l-.083.092a1 1 0 0 1-1.414 0l-7.151-7.151a1 1 0 0 1 .542-1.693l5.355-.894-.2-.201a3.995 3.995 0 0 1-1.11-3.535zm6.404-9.152a1 1 0 0 1-.542 1.693l-5.357.893.202.202a3.995 3.995 0 0 1 1.11 3.536H7.514l7.778-7.778a4 4 0 0 1 5.657 0l.201.201.894-5.356a1 1 0 0 1 1.693-.542z"/></svg>
